icons/evolvere-blue-folders-flat-vivid-dark-fallback/apps/64/turpial.svg

<?xml version="1.0" encoding="UTF-8" standalone="no"?>
<!-- Created with Inkscape (http://www.inkscape.org/) -->

<svg
   xmlns:dc="http://purl.org/dc/elements/1.1/"
   xmlns:cc="http://creativecommons.org/ns#"
   xmlns:rdf="http://www.w3.org/1999/02/22-rdf-syntax-ns#"
   xmlns:svg="http://www.w3.org/2000/svg"
   xmlns="http://www.w3.org/2000/svg"
   xmlns:sodipodi="http://sodipodi.sourceforge.net/DTD/sodipodi-0.dtd"
   xmlns:inkscape="http://www.inkscape.org/namespaces/inkscape"
   width="64"
   height="64"
   id="svg13094"
   version="1.1"
   inkscape:version="0.91+devel r"
   sodipodi:docname="turpial.svg">
  <sodipodi:namedview
     id="base"
     pagecolor="#ffffff"
     bordercolor="#666666"
     borderopacity="1.0"
     inkscape:pageopacity="0"
     inkscape:pageshadow="2"
     inkscape:zoom="11.313709"
     inkscape:cx="33.776492"
     inkscape:cy="31.364559"
     inkscape:document-units="px"
     inkscape:current-layer="svg13094"
     showgrid="false"
     inkscape:snap-bbox="true"
     inkscape:bbox-paths="true"
     inkscape:bbox-nodes="true"
     inkscape:snap-bbox-edge-midpoints="true"
     inkscape:snap-bbox-midpoints="true"
     inkscape:object-paths="true"
     inkscape:snap-intersection-paths="true"
     inkscape:object-nodes="true"
     inkscape:snap-smooth-nodes="true"
     inkscape:snap-midpoints="true"
     inkscape:snap-object-midpoints="true"
     inkscape:snap-center="true"
     showguides="true"
     inkscape:guide-bbox="true"
     inkscape:window-width="1920"
     inkscape:window-height="1023"
     inkscape:window-x="-10"
     inkscape:window-y="35"
     inkscape:window-maximized="1"
     inkscape:snap-global="true"
     fit-margin-top="0"
     fit-margin-left="0"
     fit-margin-right="0"
     fit-margin-bottom="0"
     showborder="true"
     inkscape:showpageshadow="false"
     inkscape:snap-page="true">
    <inkscape:grid
       type="xygrid"
       id="grid3075"
       empspacing="5"
       visible="true"
       enabled="true"
       snapvisiblegridlinesonly="true"
       originx="1.6362304e-08px"
       originy="18px" />
  </sodipodi:namedview>
  <defs
     id="defs13096" />
  <metadata
     id="metadata13099">
    <rdf:RDF>
      <cc:Work
         rdf:about="">
        <dc:format>image/svg+xml</dc:format>
        <dc:type
           rdf:resource="http://purl.org/dc/dcmitype/StillImage" />
        <dc:title></dc:title>
      </cc:Work>
    </rdf:RDF>
  </metadata>
  <path
     inkscape:connector-curvature="0"
     style="color:#000000;fill:#3a4757;fill-opacity:1;fill-rule:nonzero;stroke:none;stroke-width:2.28571415;marker:none;visibility:visible;display:inline;overflow:visible;enable-background:accumulate"
     d="m 0,4 0,30 0,28 2,2 30,0 30,0 2,-2 L 64,34 64,4 32,4 0,4 z"
     id="path4095" />
  <path
     style="color:#000000;fill:#eeb510;fill-opacity:1;fill-rule:nonzero;stroke:none;stroke-width:2.28571415;marker:none;visibility:visible;display:inline;overflow:visible;enable-background:accumulate"
     d="M 0 4 L 0 34 L 0 52.1875 C 7.5674861 51.5752 14.486193 50.19103 20.90625 48.0625 C 39.35345 52.492424 53.274038 42.709433 54 27.40625 C 57.4045 24.1423 60.723593 20.597602 64 16.75 L 64 4 L 32 4 L 0 4 z M 43.21875 36.5 C 41.389377 37.841154 39.519131 39.098784 37.59375 40.28125 C 39.508305 39.104881 41.379682 37.836867 43.21875 36.5 z M 35.65625 41.4375 C 33.762635 42.527461 31.845003 43.552034 29.875 44.46875 C 31.843402 43.535803 33.773782 42.525044 35.65625 41.4375 z "
     id="path3031" />
  <path
     inkscape:connector-curvature="0"
     style="color:#000000;fill:#ffdb50;fill-opacity:1;fill-rule:nonzero;stroke:none;stroke-width:1;marker:none;visibility:visible;display:inline;overflow:visible;enable-background:accumulate"
     d="M 2,0 0,1 0,4 32,4 64,4 64,1 62,0 32,0 2,0 z"
     id="path4090" />
  <path
     style="fill:#ffe16d;fill-opacity:1;fill-rule:nonzero"
     d="M 0,3 0,6 2,4 Z"
     id="path4298"
     inkscape:connector-curvature="0"
     sodipodi:nodetypes="cccc" />
  <path
     d="M 64,6 62,4 64,3 z"
     id="path3028"
     style="fill:#f7c932;fill-opacity:1"
     inkscape:connector-curvature="0" />
  <g
     id="g3043"
     inkscape:export-filename="folder.png"
     inkscape:export-xdpi="90"
     inkscape:export-ydpi="90"
     transform="translate(-0.62500009,0.082283)" />
  <g
     id="scalable"
     transform="matrix(1.0385892,0,0,1.0385892,1214.7222,1878.8121)"
     inkscape:label="#g3701"
     style="fill:#ffffff" />
  <path
     inkscape:connector-curvature="0"
     id="path5988-0"
     d="M 40.15625,12.25 C 24.694362,11.698875 14.028697,31.33535 5.3125,41.3125 10.622197,44.633744 15.774177,46.799594 20.625,48 33.151449,44.255664 44.649889,36.66457 54,27.21875 54.06261,25.668597 53.9924,24.056585 53.78125,22.40625 L 58.6875,19.875 53.28125,19.5 l 4.625,-3.71875 -6.25,0.4375 c -4.113595,-2.644394 -7.931872,-3.841567 -11.5,-3.96875 z"
     style="color:#000000;fill:#3a4757;fill-opacity:1;fill-rule:nonzero;stroke:none;stroke-width:2.28571415;marker:none;visibility:visible;display:inline;overflow:visible;enable-background:accumulate" />
  <path
     id="path5990"
     style="fill:#e2e4e6;fill-opacity:1;fill-rule:nonzero;stroke:none"
     d="m 30.557188,47.472571 1.565359,8.695343 1.144055,-0.205727 -1.565359,-8.696245"
     inkscape:connector-curvature="0" />
  <path
     id="path6074"
     style="fill:#afb4b9;fill-opacity:1;fill-rule:nonzero;stroke:none"
     d="m 26.990853,20.968812 c 1.292541,-0.250456 2.484002,-0.364953 3.577071,-0.364953 3.279201,0.0027 5.646025,1.025982 7.214066,2.579713 1.566254,1.556412 2.351616,3.672779 2.35251,5.947466 8.72e-4,3.965278 -2.411547,8.364385 -7.25074,10.758936 -3.965279,1.962512 -8.08262,2.694204 -11.919985,2.695099 -5.91795,0.0036 -11.1739758,-1.754097 -14.0381348,-3.35255 l -0.5662121,1.01614 c 3.0618396,1.700428 8.4529349,3.495671 14.6043489,3.499248 3.983168,0 8.284772,-0.760316 12.436102,-2.814961 5.215776,-2.581501 7.897458,-7.370605 7.898355,-11.801912 8.73e-4,-2.540353 -0.889124,-4.977839 -2.696892,-6.773081 -1.806868,-1.796138 -4.514492,-2.919619 -8.033418,-2.916935 -1.174467,0 -2.440172,0.122545 -3.798008,0.384632 l 0.220938,1.143158"
     inkscape:connector-curvature="0" />
  <path
     id="path6076"
     style="fill:#e2e4e6;fill-opacity:1;fill-rule:nonzero;stroke:none"
     d="m 26.433586,47.472571 1.567148,8.695343 1.144948,-0.205727 -1.567148,-8.696245"
     inkscape:connector-curvature="0" />
  <path
     id="path6078"
     style="fill:#afb4b9;fill-opacity:1;fill-rule:nonzero;stroke:none"
     d="m 44.152553,22.286397 c -0.406099,-1.335476 -0.57337,-2.314048 -0.571579,-2.934825 -0.0027,-0.413254 0.07871,-0.652977 0.132383,-0.727219 l 0.04651,-0.0492 0.07692,-0.01342 c 0.08498,-0.0027 0.267453,0.03846 0.500021,0.159218 0.709329,0.356008 1.785404,1.364099 2.814961,2.742508 l 0.929377,-0.696808 c -0.733483,-0.976784 -1.479487,-1.789876 -2.183451,-2.376662 -0.352431,-0.293391 -0.694126,-0.531327 -1.031349,-0.703963 -0.337223,-0.170848 -0.671763,-0.284449 -1.029559,-0.286237 -0.207521,-8.73e-4 -0.423987,0.04293 -0.620775,0.147589 -0.297867,0.153854 -0.511649,0.432934 -0.628829,0.739745 -0.120754,0.309495 -0.167269,0.658344 -0.168162,1.064442 0.0017,0.812201 0.196787,1.870381 0.620775,3.27205 l 1.112747,-0.337223"
     inkscape:connector-curvature="0" />
  <path
     sodipodi:nodetypes="ccccccc"
     id="path29813"
     d="m 16.634055,40.243453 0.333962,-1.110937 c 1.89556,-6.375986 7.134463,-13.411128 15.63977,-16.535529 l 1.097306,-0.402117 -0.29307,2.589914 c -7.52925,2.765846 -12.511287,9.277099 -14.215316,15.008843 l -2.562652,0.449826 z"
     style="font-size:medium;font-style:normal;font-variant:normal;font-weight:normal;font-stretch:normal;text-indent:0;text-align:start;text-decoration:none;line-height:normal;letter-spacing:normal;word-spacing:normal;text-transform:none;direction:ltr;block-progression:tb;writing-mode:lr-tb;text-anchor:start;color:#000000;fill:#e2e4e6;fill-opacity:1;stroke:none;stroke-width:10.67840004;marker:none;visibility:visible;display:inline;overflow:visible;enable-background:accumulate;font-family:AlArabiya;-inkscape-font-specification:AlArabiya"
     inkscape:connector-curvature="0" />
</svg>

<svg xmlns="http://www.w3.org/2000/svg" viewBox="0 0 64 64"><g color="#000"><path d="m0 4v30 28l2 2h30 30l2-2v-28-30h-32-32" fill="#3a4757"/><path d="m0 4v30 18.19c7.567-.612 14.486-1.996 20.906-4.125 18.447 4.43 32.368-5.353 33.09-20.656 3.404-3.264 6.724-6.809 10-10.656v-12.75h-32-32m43.22 32.5c-1.829 1.341-3.7 2.599-5.625 3.781 1.915-1.176 3.786-2.444 5.625-3.781m-7.563 4.938c-1.894 1.09-3.811 2.115-5.781 3.03 1.968-.933 3.899-1.944 5.781-3.03" fill="#eeb510"/><path d="m2 0l-2 1v3h32 32v-3l-2-1h-30-30" fill="#ffdb50"/></g><path d="m0 3v3l2-2" fill="#ffe16d"/><path d="m64 6l-2-2 2-1z" fill="#f7c932"/><path d="m40.16 12.25c-15.462-.551-26.13 19.09-34.844 29.06 5.31 3.321 10.462 5.487 15.313 6.688 12.526-3.744 24.02-11.335 33.375-20.781.063-1.55-.008-3.162-.219-4.813l4.906-2.531-5.406-.375 4.625-3.719-6.25.438c-4.114-2.644-7.932-3.842-11.5-3.969" fill="#3a4757" color="#000"/><path d="m30.557 47.47l1.565 8.695 1.144-.206-1.565-8.696" fill="#e2e4e6"/><path d="m26.991 20.969c1.293-.25 2.484-.365 3.577-.365 3.279.003 5.646 1.026 7.214 2.58 1.566 1.556 2.352 3.673 2.353 5.947.001 3.965-2.412 8.364-7.251 10.759-3.965 1.963-8.08 2.694-11.92 2.695-5.918.004-11.174-1.754-14.04-3.353l-.566 1.016c3.062 1.7 8.453 3.496 14.604 3.499 3.983 0 8.285-.76 12.436-2.815 5.216-2.582 7.897-7.371 7.898-11.802.001-2.54-.889-4.978-2.697-6.773-1.807-1.796-4.514-2.92-8.03-2.917-1.174 0-2.44.123-3.798.385l.221 1.143" fill="#afb4b9"/><path d="m26.434 47.47l1.567 8.695 1.145-.206-1.567-8.696" fill="#e2e4e6"/><path d="m44.15 22.286c-.406-1.335-.573-2.314-.572-2.935-.003-.413.079-.653.132-.727l.047-.049.077-.013c.085-.003.267.038.5.159.709.356 1.785 1.364 2.815 2.743l.929-.697c-.733-.977-1.479-1.79-2.183-2.377-.352-.293-.694-.531-1.031-.704-.337-.171-.672-.284-1.03-.286-.208-.001-.424.043-.621.148-.298.154-.512.433-.629.74-.121.309-.167.658-.168 1.064.002.812.197 1.87.621 3.272l1.113-.337" fill="#afb4b9"/><path d="m16.634 40.24l.334-1.111c1.896-6.376 7.134-13.411 15.64-16.536l1.097-.402-.293 2.59c-7.529 2.766-12.511 9.277-14.215 15.01l-2.563.45" color="#000" fill="#e2e4e6"/></svg>
